X: 3334
T: Solen virker op
B:[[Notböcker/Melodier til gamle danske Almuedanse for Violin solo]]
O:Danmark
Z:Søren Bak Vestergaard
M: 2/4
L: 1/8
K: G
D|G2 A2|BB G2|(GB)dg|d2 B2|ce Ac|Bd ge|dB cA|A2 G:|\
|:!upbow!e|gg ee|ge d2|efge|d2 B2|ce Ac|Bd ge|dB cA|A2 G:|
(:musicend:)
(:music:)
